X: 2
T: The Braes Of Mellinish
R: jig
M: 6/8
L: 1/8
K: Amix
A>AA AAA | d2c BGB | A>AA AAA | g2f eea |
A>AA AAA | d2c BGB | A2a eAe | dGB A2c :|
e2d cAc | d2c BGB | e2d cAc | cae cAc | e2d cAc |
d2c BGB | A2a eAe |[1 dGB A2c :|[2 dGB A2e ||
A2e eAe | dGd BGB | A2e eAe | fAf eAe | fAf eAe |
dGd BGB | A2a eAe | [1 dGB A2e :| [2 dGB A2c ||
Aaa aAa | gAg BGB | A2 a aAa | gAa aAa | gAa aAa |
gAg BGB | A2a eAe |[1 dGB A2c :| [2 dGB A3 ||
